img/tags.svg

<?xml version="1.0" encoding="iso-8859-1"?>
<!-- Generator: Adobe Illustrator 16.0.0, SVG Export Plug-In . SVG Version: 6.00 Build 0)  -->
<!DOCTYPE svg PUBLIC "-//W3C//DTD SVG 1.1//EN" "http://www.w3.org/Graphics/SVG/1.1/DTD/svg11.dtd">
<svg version="1.1" id="Capa_1" xmlns="http://www.w3.org/2000/svg" xmlns:xlink="http://www.w3.org/1999/xlink" x="0px" y="0px"
	 width="542.183px" height="542.183px" viewBox="0 0 542.183 542.183" style="enable-background:new 0 0 542.183 542.183;"
	 xml:space="preserve">
<g>
	<g>
		<path d="M432.544,310.636c0-9.897-3.521-18.559-10.564-25.984L217.844,80.8c-7.232-7.238-16.939-13.374-29.121-18.416
			c-12.181-5.043-23.319-7.565-33.407-7.565H36.545c-9.896,0-18.464,3.619-25.694,10.848C3.616,72.9,0,81.466,0,91.365v118.771
			c0,10.088,2.519,21.219,7.564,33.404c5.046,12.185,11.187,21.792,18.417,28.837L230.12,476.799
			c7.043,7.043,15.608,10.564,25.694,10.564c9.898,0,18.562-3.521,25.984-10.564l140.186-140.47
			C429.023,329.284,432.544,320.725,432.544,310.636z M117.204,172.02c-7.139,7.138-15.752,10.709-25.841,10.709
			c-10.085,0-18.698-3.571-25.837-10.709c-7.139-7.139-10.705-15.749-10.705-25.837c0-10.089,3.566-18.702,10.705-25.837
			c7.139-7.139,15.752-10.71,25.837-10.71c10.089,0,18.702,3.571,25.841,10.71c7.135,7.135,10.707,15.749,10.707,25.837
			C127.91,156.271,124.339,164.881,117.204,172.02z"/>
		<path d="M531.612,284.655L327.473,80.804c-7.23-7.238-16.939-13.374-29.122-18.417c-12.177-5.042-23.313-7.564-33.402-7.564
			h-63.953c10.088,0,21.222,2.522,33.402,7.564c12.185,5.046,21.892,11.182,29.125,18.417l204.137,203.851
			c7.046,7.423,10.571,16.084,10.571,25.981c0,10.089-3.525,18.647-10.571,25.693L333.469,470.519
			c5.718,5.9,10.759,10.182,15.133,12.847c4.38,2.666,9.996,3.998,16.844,3.998c9.903,0,18.565-3.521,25.98-10.564l140.186-140.47
			c7.046-7.046,10.571-15.604,10.571-25.693C542.179,300.739,538.658,292.078,531.612,284.655z"/>
	</g>
</g>
<g>
</g>
<g>
</g>
<g>
</g>
<g>
</g>
<g>
</g>
<g>
</g>
<g>
</g>
<g>
</g>
<g>
</g>
<g>
</g>
<g>
</g>
<g>
</g>
<g>
</g>
<g>
</g>
<g>
</g>
</svg>

<?xml version="1.0" encoding="UTF-8" standalone="no"?>
<svg
   xmlns:dc="http://purl.org/dc/elements/1.1/"
   xmlns:cc="http://creativecommons.org/ns#"
   xmlns:rdf="http://www.w3.org/1999/02/22-rdf-syntax-ns#"
   xmlns:svg="http://www.w3.org/2000/svg"
   xmlns="http://www.w3.org/2000/svg"
   xmlns:sodipodi="http://sodipodi.sourceforge.net/DTD/sodipodi-0.dtd"
   xmlns:inkscape="http://www.inkscape.org/namespaces/inkscape"
   inkscape:version="1.0 (4035a4fb49, 2020-05-01)"
   sodipodi:docname="tags.svg"
   xml:space="preserve"
   viewBox="0 0 542.183 432.54503"
   height="432.54501"
   width="542.18298"
   y="0px"
   x="0px"
   id="Capa_1"
   version="1.1"><metadata
   id="metadata45"><rdf:RDF><cc:Work
       rdf:about=""><dc:format>image/svg+xml</dc:format><dc:type
         rdf:resource="http://purl.org/dc/dcmitype/StillImage" /><dc:title></dc:title></cc:Work></rdf:RDF></metadata><defs
   id="defs43" /><sodipodi:namedview
   inkscape:current-layer="Capa_1"
   inkscape:window-maximized="1"
   inkscape:window-y="27"
   inkscape:window-x="0"
   inkscape:cy="178.91305"
   inkscape:cx="221.04973"
   inkscape:zoom="1.05315"
   showgrid="false"
   id="namedview41"
   inkscape:window-height="712"
   inkscape:window-width="1366"
   inkscape:pageshadow="2"
   inkscape:pageopacity="0"
   guidetolerance="10"
   gridtolerance="10"
   objecttolerance="10"
   borderopacity="1"
   bordercolor="#666666"
   pagecolor="#ffffff" />
<g
   style="fill:#5c4c4c;fill-opacity:1"
   transform="translate(0,-54.819)"
   id="g8">
	<g
   style="fill:#5c4c4c;fill-opacity:1"
   id="g6">
		<path
   style="fill:#5c4c4c;fill-opacity:1"
   id="path2"
   d="m 432.544,310.636 c 0,-9.897 -3.521,-18.559 -10.564,-25.984 L 217.844,80.8 C 210.612,73.562 200.905,67.426 188.723,62.384 176.542,57.341 165.404,54.819 155.316,54.819 H 36.545 c -9.896,0 -18.464,3.619 -25.694,10.848 C 3.616,72.9 0,81.466 0,91.365 v 118.771 c 0,10.088 2.519,21.219 7.564,33.404 5.046,12.185 11.187,21.792 18.417,28.837 L 230.12,476.799 c 7.043,7.043 15.608,10.564 25.694,10.564 9.898,0 18.562,-3.521 25.984,-10.564 l 140.186,-140.47 c 7.039,-7.045 10.56,-15.604 10.56,-25.693 z M 117.204,172.02 c -7.139,7.138 -15.752,10.709 -25.841,10.709 -10.085,0 -18.698,-3.571 -25.837,-10.709 -7.139,-7.139 -10.705,-15.749 -10.705,-25.837 0,-10.089 3.566,-18.702 10.705,-25.837 7.139,-7.139 15.752,-10.71 25.837,-10.71 10.089,0 18.702,3.571 25.841,10.71 7.135,7.135 10.707,15.749 10.707,25.837 -0.001,10.088 -3.572,18.698 -10.707,25.837 z" />
		<path
   style="fill:#5c4c4c;fill-opacity:1"
   id="path4"
   d="M 531.612,284.655 327.473,80.804 C 320.243,73.566 310.534,67.43 298.351,62.387 286.174,57.345 275.038,54.823 264.949,54.823 h -63.953 c 10.088,0 21.222,2.522 33.402,7.564 12.185,5.046 21.892,11.182 29.125,18.417 L 467.66,284.655 c 7.046,7.423 10.571,16.084 10.571,25.981 0,10.089 -3.525,18.647 -10.571,25.693 l -134.191,134.19 c 5.718,5.9 10.759,10.182 15.133,12.847 4.38,2.666 9.996,3.998 16.844,3.998 9.903,0 18.565,-3.521 25.98,-10.564 L 531.612,336.33 c 7.046,-7.046 10.571,-15.604 10.571,-25.693 -0.004,-9.898 -3.525,-18.559 -10.571,-25.982 z" />
	</g>
</g>
<g
   id="g10">
</g>
<g
   id="g12">
</g>
<g
   id="g14">
</g>
<g
   id="g16">
</g>
<g
   id="g18">
</g>
<g
   id="g20">
</g>
<g
   id="g22">
</g>
<g
   id="g24">
</g>
<g
   id="g26">
</g>
<g
   id="g28">
</g>
<g
   id="g30">
</g>
<g
   id="g32">
</g>
<g
   id="g34">
</g>
<g
   id="g36">
</g>
<g
   id="g38">
</g>
</svg>
